svgs/thin/ellipsis-stroke-vertical.svg

<svg xmlns="http://www.w3.org/2000/svg" viewBox="0 0 192 512"><!-- Font Awesome Pro 6.0.0-alpha2 by @fontawesome - https://fontawesome.com License - https://fontawesome.com/license (Commercial License) --><path d="M96 16C122.467 16 144 37.533 144 64S122.467 112 96 112S48 90.467 48 64S69.533 16 96 16M96 208C122.467 208 144 229.533 144 256S122.467 304 96 304S48 282.467 48 256S69.533 208 96 208M96 400C122.467 400 144 421.533 144 448S122.467 496 96 496S48 474.467 48 448S69.533 400 96 400M96 0C60.625 0 32 28.611 32 64S60.625 128 96 128S160 99.389 160 64S131.375 0 96 0L96 0ZM96 192C60.625 192 32 220.611 32 256S60.625 320 96 320S160 291.389 160 256S131.375 192 96 192L96 192ZM96 384C60.625 384 32 412.611 32 448S60.625 512 96 512S160 483.389 160 448S131.375 384 96 384L96 384Z"/></svg>

<svg xmlns="http://www.w3.org/2000/svg" viewBox="0 0 192 512"><!--! Font Awesome Pro 6.0.0-alpha3 by @fontawesome - https://fontawesome.com License - https://fontawesome.com/license (Commercial License) --><path d="M96 16c26.47 0 48 21.53 48 48S122.5 112 96 112S48 90.47 48 64S69.53 16 96 16zM96 208c26.47 0 48 21.53 48 48S122.5 304 96 304S48 282.5 48 256S69.53 208 96 208zM96 400c26.47 0 48 21.53 48 48s-21.53 48-48 48S48 474.5 48 448S69.53 400 96 400zM96 0C60.63 0 32 28.61 32 64s28.62 64 64 64s64-28.61 64-64S131.4 0 96 0zM96 192C60.63 192 32 220.6 32 256s28.62 64 64 64s64-28.61 64-64S131.4 192 96 192zM96 384c-35.38 0-64 28.61-64 64s28.62 64 64 64s64-28.61 64-64S131.4 384 96 384z"/></svg>
